static/assets/items/fissile-matter.svg

<?xml version="1.0" encoding="UTF-8" standalone="no"?>
<!-- Created with Inkscape (http://www.inkscape.org/) -->

<svg
   version="1.1"
   id="svg10615"
   width="32"
   height="32"
   viewBox="0 0 32 32"
   sodipodi:docname="fissile-matter.svg"
   inkscape:version="1.2 (dc2aedaf03, 2022-05-15)"
   xmlns:inkscape="http://www.inkscape.org/namespaces/inkscape"
   xmlns:sodipodi="http://sodipodi.sourceforge.net/DTD/sodipodi-0.dtd"
   xmlns="http://www.w3.org/2000/svg"
   xmlns:svg="http://www.w3.org/2000/svg">
  <defs
     id="defs10619" />
  <sodipodi:namedview
     id="namedview10617"
     pagecolor="#505050"
     bordercolor="#eeeeee"
     borderopacity="1"
     inkscape:showpageshadow="0"
     inkscape:pageopacity="0"
     inkscape:pagecheckerboard="0"
     inkscape:deskcolor="#505050"
     showgrid="false"
     inkscape:zoom="17.987029"
     inkscape:cx="-8.8675013"
     inkscape:cy="17.095653"
     inkscape:window-width="1920"
     inkscape:window-height="1001"
     inkscape:window-x="-9"
     inkscape:window-y="-9"
     inkscape:window-maximized="1"
     inkscape:current-layer="g10621" />
  <g
     inkscape:groupmode="layer"
     inkscape:label="Image"
     id="g10621">
    <g
       id="g12675">
      <path
         style="fill:#8bbeb0;fill-opacity:1"
         d="M 14,18.5 Q 14.25,18.25 14.5,18 L 14.75,17.75 15,18 q 0.25,0.25 0.625,0.125 Q 16,18 16,18.5 16,19 16.5,19 17,19 17,19.5 17,20 17,20.5 17,21 16.5,21 16,21 16,21.5 16,22 15.5,22 15,22 15,22.5 15,23 14.5,23 14,23 14,23.5 14,24 13.5,24 13,24 13,23.5 13,23 12.5,23 12,23 12,22.5 12,22 11.625,22.125 11.25,22.25 11,22 L 10.75,21.75 11,21.5 Q 11.25,21.25 11.5,21 11.75,20.75 12,20.5 12.25,20.25 12.5,20 12.75,19.75 13,19.5 13.25,19.25 13.5,19 13.75,18.75 14,18.5 M 10.9375,21.5625 10.75,21.75 10.6875,21.8125 10.625,21.875 10.75,21.75 Q 10.875,21.625 11,21.5 l 0.125,-0.125 -0.1875,0.1875 m 3.875,-3.875 L 14.75,17.75 14.5625,17.9375 14.375,18.125 14.5,18 q 0.125,-0.125 0.25,-0.25 l 0.125,-0.125 -0.0625,0.0625"
         id="path12691" />
      <path
         style="fill:#4a6949;fill-opacity:1"
         d="M 27.875,13.375 28,13 27.90625,13.28125 27.8125,13.5625 27.875,13.375 Q 27.9375,13.1875 27.9375,13 V 12.8125 12.90625 13 l 0.40625,0.125 Q 28.75,13.25 29,13.5 q 0.25,0.25 0.5,0.5 0.25,0.25 0.5,0.5 0.25,0.25 0.5,0.5 0.25,0.25 0.375,0.625 0.125,0.375 0,0.75 Q 30.75,16.75 30.5,17 30.25,17.25 30,17.5 29.75,17.75 29.5,18 29.25,18.25 29,18.5 28.75,18.75 28.5,19 28.25,19.25 28,19.5 27.75,19.75 27.5,20 27.25,20.25 27,20.5 26.75,20.75 26.5,21 26.25,21.25 26,21.5 25.75,21.75 25.5,22 25.25,22.25 25,22.5 24.75,22.75 24.5,23 24.25,23.25 24,23.5 23.75,23.75 23.5,24 23.25,24.25 23,24.5 22.75,24.75 22.5,25 22.25,25.25 22,25.5 21.75,25.75 21.5,26 21.25,26.25 21,26.5 20.75,26.75 20.5,27 20.25,27.25 20,27.5 19.75,27.75 19.5,28 19.25,28.25 19,28.5 18.75,28.75 18.5,29 18.25,29.25 18,29.5 17.75,29.75 17.5,30 17.25,30.25 17,30.5 16.75,30.75 16.375,30.875 16,31 15.5,31 15,31 14.5,31 14,31 13.625,30.875 13.25,30.75 13,30.5 12.75,30.25 12.5,30 12.25,29.75 12.125,29.34375 L 12,28.9375 H 11.90625 11.8125 12 q 0.1875,0 0.375,-0.0625 L 12.5625,28.8125 12.28125,28.90625 12,29 12.375,28.875 Q 12.75,28.75 13,28.5 q 0.25,-0.25 0.5,-0.5 0.25,-0.25 0.5,-0.5 0.25,-0.25 0.5,-0.5 0.25,-0.25 0.5,-0.5 0.25,-0.25 0.5,-0.5 0.25,-0.25 0.5,-0.5 0.25,-0.25 0.5,-0.5 0.25,-0.25 0.5,-0.5 0.25,-0.25 0.5,-0.5 0.25,-0.25 0.5,-0.5 0.25,-0.25 0.5,-0.5 0.25,-0.25 0.5,-0.5 0.25,-0.25 0.5,-0.5 0.25,-0.25 0.5,-0.5 0.25,-0.25 0.5,-0.5 0.25,-0.25 0.5,-0.5 0.25,-0.25 0.5,-0.5 0.25,-0.25 0.5,-0.5 0.25,-0.25 0.5,-0.5 0.25,-0.25 0.5,-0.5 0.25,-0.25 0.5,-0.5 0.25,-0.25 0.5,-0.5 0.25,-0.25 0.5,-0.5 0.25,-0.25 0.5,-0.5 0.25,-0.25 0.5,-0.5 0.25,-0.25 0.5,-0.5 0.25,-0.25 0.5,-0.5 0.25,-0.25 0.5,-0.5 0.25,-0.25 0.5,-0.5 0.25,-0.25 0.375,-0.625"
         id="path12689" />
      <path
         style="fill:#5e988d;fill-opacity:1"
         d="M 25.875,11.625 Q 25.75,11.25 26,11 L 26.25,10.75 26.5,11 q 0.25,0.25 0.5,0.5 0.25,0.25 0.5,0.5 0.25,0.25 0.375,0.625 0.125,0.375 0,0.75 Q 27.75,13.75 27.5,14 27.25,14.25 27,14.5 26.75,14.75 26.5,15 26.25,15.25 26,15.5 25.75,15.75 25.5,16 25.25,16.25 25,16.5 24.75,16.75 24.5,17 24.25,17.25 24,17.5 23.75,17.75 23.5,18 23.25,18.25 23,18.5 22.75,18.75 22.5,19 22.25,19.25 22,19.5 21.75,19.75 21.5,20 21.25,20.25 21,20.5 20.75,20.75 20.5,21 20.25,21.25 20,21.5 19.75,21.75 19.5,22 19.25,22.25 19,22.5 18.75,22.75 18.5,23 18.25,23.25 18,23.5 17.75,23.75 17.5,24 17.25,24.25 17,24.5 16.75,24.75 16.5,25 16.25,25.25 16,25.5 15.75,25.75 15.5,26 15.25,26.25 15,26.5 14.75,26.75 14.5,27 14.25,27.25 14,27.5 13.75,27.75 13.5,28 13.25,28.25 13,28.5 12.75,28.75 12.375,28.875 12,29 11.625,28.875 11.25,28.75 11,28.5 10.75,28.25 10.5,28 10.25,27.75 10,27.5 9.75,27.25 9.5,27 9.25,26.75 9,26.5 8.75,26.25 8.5,26 8.25,25.75 8.125,25.375 8,25 8.125,24.625 8.25,24.25 8.5,24 8.75,23.75 8.875,23.34375 L 9,22.9375 H 8.90625 8.8125 9 q 0.1875,0 0.375,-0.0625 L 9.5625,22.8125 9.28125,22.90625 9,23 9.375,22.875 Q 9.75,22.75 10,22.5 10.25,22.25 10.5,22 L 10.75,21.75 11,22 q 0.25,0.25 0.625,0.125 Q 12,22 12,22.5 12,23 12.5,23 13,23 13,23.5 13,24 13.5,24 14,24 14,23.5 14,23 14.5,23 15,23 15,22.5 15,22 15.5,22 16,22 16,21.5 16,21 16.5,21 17,21 17,20.5 17,20 17,19.5 17,19 16.5,19 16,19 16,18.5 16,18 15.625,18.125 15.25,18.25 15,18 L 14.75,17.75 15,17.5 Q 15.25,17.25 15.5,17 15.75,16.75 16,16.5 16.25,16.25 16.5,16 16.75,15.75 17,15.5 17.25,15.25 17.5,15 17.75,14.75 18,14.5 18.25,14.25 18.5,14 L 18.75,13.75 19,14 q 0.25,0.25 0.125,0.625 Q 19,15 19.5,15 20,15 20,15.5 20,16 20.5,16 21,16 21.5,16 22,16 22,15.5 22,15 22.5,15 23,15 23,14.5 23,14 23.5,14 24,14 24,13.5 24,13 24.5,13 25,13 25,12.5 25,12 25.5,12 26,12 25.875,11.625 M 18.8125,13.6875 18.75,13.75 18.5625,13.9375 18.375,14.125 18.5,14 q 0.125,-0.125 0.25,-0.25 l 0.125,-0.125 -0.0625,0.0625 m -3.875,3.875 L 14.75,17.75 14.6875,17.8125 14.625,17.875 14.75,17.75 Q 14.875,17.625 15,17.5 l 0.125,-0.125 -0.1875,0.1875 m -4.125,4.125 L 10.75,21.75 10.5625,21.9375 10.375,22.125 10.5,22 q 0.125,-0.125 0.25,-0.25 l 0.125,-0.125 -0.0625,0.0625 M 26.4375,10.9375 26.25,10.75 26.1875,10.6875 26.125,10.625 26.25,10.75 q 0.125,0.125 0.25,0.25 l 0.125,0.125 -0.1875,-0.1875"
         id="path12687" />
      <path
         style="fill:#8bbeb0;fill-opacity:1"
         d="M 22.890625,9.359375 23.03125,8.96875 22.921875,8.953125 22.8125,8.9375 23.03125,8.96875 Q 23.25,9 23.5,9 H 23.75 23.375 23 23.5 Q 24,9 24.375,9.125 24.75,9.25 25,9.5 q 0.25,0.25 0.5,0.5 0.25,0.25 0.5,0.5 L 26.25,10.75 26,11 Q 25.75,11.25 25.875,11.625 26,12 25.5,12 25,12 25,12.5 25,13 24.5,13 24,13 24,13.5 24,14 23.5,14 23,14 23,14.5 23,15 22.5,15 22,15 22,15.5 22,16 21.5,16 21,16 20.5,16 20,16 20,15.5 20,15 19.5,15 19,15 19.125,14.625 19.25,14.25 19,14 L 18.75,13.75 19,13.5 Q 19.25,13.25 19.5,13 19.75,12.75 20,12.5 20.25,12.25 20.5,12 20.75,11.75 21,11.5 21.25,11.25 21.5,11 21.75,10.75 22,10.5 22.25,10.25 22.5,10 22.75,9.75 22.890625,9.359375 M 18.9375,13.5625 18.75,13.75 18.6875,13.8125 18.625,13.875 18.75,13.75 Q 18.875,13.625 19,13.5 l 0.125,-0.125 -0.1875,0.1875 m 7.375,-2.75 L 26.25,10.75 26.0625,10.5625 25.875,10.375 26,10.5 q 0.125,0.125 0.25,0.25 l 0.125,0.125 -0.0625,-0.0625"
         id="path12685" />
      <path
         style="fill:#4a6949;fill-opacity:1"
         d="M 19.875,7.375 20,7 19.90625,7.28125 19.8125,7.5625 19.875,7.375 Q 19.9375,7.1875 19.9375,7 V 6.8125 6.90625 7 l 0.40625,0.125 Q 20.75,7.25 21,7.5 21.25,7.75 21.5,8 21.75,8.25 22,8.5 22.25,8.75 22.625,8.875 L 23,9 22.71875,8.90625 22.4375,8.8125 22.625,8.875 q 0.1875,0.0625 0.40625,0.09375 L 23.25,9 23.140625,8.984375 23.03125,8.96875 22.890625,9.359375 Q 22.75,9.75 22.5,10 22.25,10.25 22,10.5 21.75,10.75 21.5,11 21.25,11.25 21,11.5 20.75,11.75 20.5,12 20.25,12.25 20,12.5 19.75,12.75 19.5,13 19.25,13.25 19,13.5 18.75,13.75 18.5,14 18.25,14.25 18,14.5 17.75,14.75 17.5,15 17.25,15.25 17,15.5 16.75,15.75 16.5,16 16.25,16.25 16,16.5 15.75,16.75 15.5,17 15.25,17.25 15,17.5 14.75,17.75 14.5,18 14.25,18.25 14,18.5 13.75,18.75 13.5,19 13.25,19.25 13,19.5 12.75,19.75 12.5,20 12.25,20.25 12,20.5 11.75,20.75 11.5,21 11.25,21.25 11,21.5 10.75,21.75 10.5,22 10.25,22.25 10,22.5 9.75,22.75 9.375,22.875 9,23 8.625,22.875 8.25,22.75 8,22.5 7.75,22.25 7.5,22 7.25,21.75 7,21.5 6.75,21.25 6.5,21 6.25,20.75 6,20.5 5.75,20.25 5.5,20 5.25,19.75 5,19.5 4.75,19.25 4.5,19 4.25,18.75 4,18.5 3.75,18.25 3.5,18 3.25,17.75 3.125,17.375 3,17 3,16.5 3,16 3,15.5 V 15 15.375 15.75 15.5 Q 3,15.25 3.03125,15.03125 L 3.0625,14.8125 3.046875,14.921875 3.03125,15.03125 3.390625,15.140625 Q 3.75,15.25 4,15.5 4.25,15.75 4.5,16 4.75,16.25 5,16.5 5.25,16.75 5.5,17 5.75,17.25 6,17.5 6.25,17.75 6.5,18 6.75,18.25 7,18.5 7.25,18.75 7.625,18.875 8,19 8.375,18.875 8.75,18.75 9,18.5 9.25,18.25 9.5,18 9.75,17.75 10,17.5 10.25,17.25 10.5,17 10.75,16.75 11,16.5 11.25,16.25 11.5,16 11.75,15.75 12,15.5 12.25,15.25 12.5,15 12.75,14.75 13,14.5 13.25,14.25 13.5,14 13.75,13.75 14,13.5 14.25,13.25 14.5,13 14.75,12.75 15,12.5 15.25,12.25 15.5,12 15.75,11.75 16,11.5 16.25,11.25 16.5,11 16.75,10.75 17,10.5 17.25,10.25 17.5,10 17.75,9.75 18,9.5 18.25,9.25 18.5,9 18.75,8.75 19,8.5 19.25,8.25 19.5,8 19.75,7.75 19.875,7.375"
         id="path12683" />
      <path
         style="fill:#5e988d;fill-opacity:1"
         d="M 17.875,5.625 Q 17.75,5.25 18,5 L 18.25,4.75 18.5,5 Q 18.75,5.25 19,5.5 19.25,5.75 19.5,6 19.75,6.25 19.875,6.625 20,7 19.875,7.375 19.75,7.75 19.5,8 19.25,8.25 19,8.5 18.75,8.75 18.5,9 18.25,9.25 18,9.5 17.75,9.75 17.5,10 17.25,10.25 17,10.5 16.75,10.75 16.5,11 16.25,11.25 16,11.5 15.75,11.75 15.5,12 15.25,12.25 15,12.5 14.75,12.75 14.5,13 14.25,13.25 14,13.5 13.75,13.75 13.5,14 13.25,14.25 13,14.5 12.75,14.75 12.5,15 12.25,15.25 12,15.5 11.75,15.75 11.5,16 11.25,16.25 11,16.5 10.75,16.75 10.5,17 10.25,17.25 10,17.5 9.75,17.75 9.5,18 9.25,18.25 9,18.5 8.75,18.75 8.375,18.875 8,19 7.625,18.875 7.25,18.75 7,18.5 6.75,18.25 6.5,18 6.25,17.75 6,17.5 5.75,17.25 5.5,17 5.25,16.75 5,16.5 4.75,16.25 4.5,16 4.25,15.75 4,15.5 3.75,15.25 3.390625,15.140625 L 3.03125,15.03125 3.015625,15.140625 3,15.25 3.03125,15.03125 Q 3.0625,14.8125 3.125,14.625 L 3.1875,14.4375 3.09375,14.71875 3,15 3.125,14.625 Q 3.25,14.25 3.5,14 3.75,13.75 4,13.5 4.25,13.25 4.5,13 L 4.75,12.75 5,13 Q 5.25,13.25 5.625,13.125 6,13 6,13.5 6,14 6.5,14 7,14 7,14.5 7,15 7.5,15 8,15 8.5,15 9,15 9,14.5 9,14 9.5,14 10,14 10,13.5 10,13 10.5,13 11,13 11,12.5 11,12 11.5,12 12,12 12,11.5 12,11 12.5,11 13,11 13,10.5 13,10 13.5,10 14,10 14,9.5 14,9 14.5,9 15,9 15,8.5 15,8 15.5,8 16,8 16,7.5 16,7 16.5,7 17,7 17,6.5 17,6 17.5,6 18,6 17.875,5.625 M 4.8125,12.6875 4.75,12.75 4.5625,12.9375 4.375,13.125 4.5,13 Q 4.625,12.875 4.75,12.75 L 4.875,12.625 4.8125,12.6875 M 18.4375,4.9375 18.25,4.75 18.1875,4.6875 18.125,4.625 18.25,4.75 Q 18.375,4.875 18.5,5 l 0.125,0.125 -0.1875,-0.1875"
         id="path12681" />
      <path
         style="fill:#8bbeb0;fill-opacity:1"
         d="M 14,3.5 Q 14.25,3.25 14.625,3.125 15,3 15.5,3 16,3 16.375,3.125 16.75,3.25 17,3.5 17.25,3.75 17.5,4 17.75,4.25 18,4.5 L 18.25,4.75 18,5 Q 17.75,5.25 17.875,5.625 18,6 17.5,6 17,6 17,6.5 17,7 16.5,7 16,7 16,7.5 16,8 15.5,8 15,8 15,8.5 15,9 14.5,9 14,9 14,9.5 14,10 13.5,10 13,10 13,10.5 13,11 12.5,11 12,11 12,11.5 12,12 11.5,12 11,12 11,12.5 11,13 10.5,13 10,13 10,13.5 10,14 9.5,14 9,14 9,14.5 9,15 8.5,15 8,15 7.5,15 7,15 7,14.5 7,14 6.5,14 6,14 6,13.5 6,13 5.625,13.125 5.25,13.25 5,13 L 4.75,12.75 5,12.5 Q 5.25,12.25 5.5,12 5.75,11.75 6,11.5 6.25,11.25 6.5,11 6.75,10.75 7,10.5 7.25,10.25 7.5,10 7.75,9.75 8,9.5 8.25,9.25 8.5,9 8.75,8.75 9,8.5 9.25,8.25 9.5,8 9.75,7.75 10,7.5 10.25,7.25 10.5,7 10.75,6.75 11,6.5 11.25,6.25 11.5,6 11.75,5.75 12,5.5 12.25,5.25 12.5,5 12.75,4.75 13,4.5 13.25,4.25 13.5,4 13.75,3.75 14,3.5 M 4.9375,12.5625 4.75,12.75 4.6875,12.8125 4.625,12.875 4.75,12.75 Q 4.875,12.625 5,12.5 L 5.125,12.375 4.9375,12.5625 M 18.3125,4.8125 18.25,4.75 18.0625,4.5625 17.875,4.375 18,4.5 q 0.125,0.125 0.25,0.25 l 0.125,0.125 -0.0625,-0.0625"
         id="path12679" />
      <path
         style="fill:#000000;fill-opacity:0"
         d="M 0,0.5 V 0 H 0.5 1 1.5 2 2.5 3 3.5 4 4.5 5 5.5 6 6.5 7 7.5 8 8.5 9 9.5 10 10.5 11 11.5 12 12.5 13 13.5 14 14.5 15 15.5 16 16.5 17 17.5 18 18.5 19 19.5 20 20.5 21 21.5 22 22.5 23 23.5 24 24.5 25 25.5 26 26.5 27 27.5 28 28.5 29 29.5 30 30.5 31 31.5 32 V 0.5 1 1.5 2 2.5 3 3.5 4 4.5 5 5.5 6 6.5 7 7.5 8 8.5 9 9.5 10 10.5 11 11.5 12 12.5 13 13.5 14 14.5 15 15.5 16 16.5 17 17.5 18 18.5 19 19.5 20 20.5 21 21.5 22 22.5 23 23.5 24 24.5 25 25.5 26 26.5 27 27.5 28 28.5 29 29.5 30 30.5 31 31.5 32 H 31.5 31 30.5 30 29.5 29 28.5 28 27.5 27 26.5 26 25.5 25 24.5 24 23.5 23 22.5 22 21.5 21 20.5 20 19.5 19 18.5 18 17.5 17 16.5 16 15.5 15 14.5 14 13.5 13 12.5 12 11.5 11 10.5 10 9.5 9 8.5 8 7.5 7 6.5 6 5.5 5 4.5 4 3.5 3 2.5 2 1.5 1 0.5 0 V 31.5 31 30.5 30 29.5 29 28.5 28 27.5 27 26.5 26 25.5 25 24.5 24 23.5 23 22.5 22 21.5 21 20.5 20 19.5 19 18.5 18 17.5 17 16.5 16 15.5 15 14.5 14 13.5 13 12.5 12 11.5 11 10.5 10 9.5 9 8.5 8 7.5 7 6.5 6 5.5 5 4.5 4 3.5 3 2.5 2 1.5 1 0.5 M 15.5,31 Q 16,31 16.375,30.875 16.75,30.75 17,30.5 17.25,30.25 17.5,30 17.75,29.75 18,29.5 18.25,29.25 18.5,29 18.75,28.75 19,28.5 19.25,28.25 19.5,28 19.75,27.75 20,27.5 20.25,27.25 20.5,27 20.75,26.75 21,26.5 21.25,26.25 21.5,26 21.75,25.75 22,25.5 22.25,25.25 22.5,25 22.75,24.75 23,24.5 23.25,24.25 23.5,24 23.75,23.75 24,23.5 24.25,23.25 24.5,23 24.75,22.75 25,22.5 25.25,22.25 25.5,22 25.75,21.75 26,21.5 26.25,21.25 26.5,21 26.75,20.75 27,20.5 27.25,20.25 27.5,20 27.75,19.75 28,19.5 28.25,19.25 28.5,19 28.75,18.75 29,18.5 29.25,18.25 29.5,18 29.75,17.75 30,17.5 30.25,17.25 30.5,17 30.75,16.75 30.875,16.375 31,16 30.875,15.625 30.75,15.25 30.5,15 30.25,14.75 30,14.5 29.75,14.25 29.5,14 29.25,13.75 29,13.5 28.75,13.25 28.34375,13.125 L 27.9375,13 V 13.09375 13.1875 13 q 0,-0.1875 -0.0625,-0.375 L 27.8125,12.4375 27.90625,12.71875 28,13 27.875,12.625 Q 27.75,12.25 27.5,12 27.25,11.75 27,11.5 26.75,11.25 26.5,11 26.25,10.75 26,10.5 25.75,10.25 25.5,10 25.25,9.75 25,9.5 24.75,9.25 24.375,9.125 24,9 23.5,9 23,9 22.625,8.875 22.25,8.75 22,8.5 21.75,8.25 21.5,8 21.25,7.75 21,7.5 20.75,7.25 20.34375,7.125 L 19.9375,7 V 7.09375 7.1875 7 q 0,-0.1875 -0.0625,-0.375 L 19.8125,6.4375 19.90625,6.71875 20,7 19.875,6.625 Q 19.75,6.25 19.5,6 19.25,5.75 19,5.5 18.75,5.25 18.5,5 18.25,4.75 18,4.5 17.75,4.25 17.5,4 17.25,3.75 17,3.5 16.75,3.25 16.375,3.125 16,3 15.5,3 15,3 14.625,3.125 14.25,3.25 14,3.5 13.75,3.75 13.5,4 13.25,4.25 13,4.5 12.75,4.75 12.5,5 12.25,5.25 12,5.5 11.75,5.75 11.5,6 11.25,6.25 11,6.5 10.75,6.75 10.5,7 10.25,7.25 10,7.5 9.75,7.75 9.5,8 9.25,8.25 9,8.5 8.75,8.75 8.5,9 8.25,9.25 8,9.5 7.75,9.75 7.5,10 7.25,10.25 7,10.5 6.75,10.75 6.5,11 6.25,11.25 6,11.5 5.75,11.75 5.5,12 5.25,12.25 5,12.5 4.75,12.75 4.5,13 4.25,13.25 4,13.5 3.75,13.75 3.5,14 3.25,14.25 3.125,14.625 3,15 3,15.5 3,16 3,16.5 3,17 3.125,17.375 3.25,17.75 3.5,18 3.75,18.25 4,18.5 4.25,18.75 4.5,19 4.75,19.25 5,19.5 5.25,19.75 5.5,20 5.75,20.25 6,20.5 6.25,20.75 6.5,21 6.75,21.25 7,21.5 7.25,21.75 7.5,22 7.75,22.25 8,22.5 8.25,22.75 8.625,22.875 L 9,23 8.71875,22.90625 8.4375,22.8125 8.625,22.875 Q 8.8125,22.9375 9,22.9375 H 9.1875 9.09375 9 L 8.875,23.34375 Q 8.75,23.75 8.5,24 8.25,24.25 8.125,24.625 8,25 8.125,25.375 8.25,25.75 8.5,26 q 0.25,0.25 0.5,0.5 0.25,0.25 0.5,0.5 0.25,0.25 0.5,0.5 0.25,0.25 0.5,0.5 0.25,0.25 0.5,0.5 0.25,0.25 0.625,0.375 L 12,29 11.71875,28.90625 11.4375,28.8125 11.625,28.875 Q 11.8125,28.9375 12,28.9375 H 12.1875 12.09375 12 l 0.125,0.40625 Q 12.25,29.75 12.5,30 q 0.25,0.25 0.5,0.5 0.25,0.25 0.625,0.375 Q 14,31 14.5,31 q 0.5,0 1,0"
         id="path12677" />
    </g>
  </g>
</svg>

<svg width="32" height="32" xmlns="http://www.w3.org/2000/svg"><path style="fill:#8bbeb0;fill-opacity:1" d="m14 18.5.5-.5.3-.3.2.3q.3.3.6.1.4-.1.4.4t.5.5.5.5v1q0 .5-.5.5t-.5.5-.5.5-.5.5-.5.5-.5.5-.5.5q-.5 0-.5-.5t-.5-.5-.5-.5q0-.5-.4-.4-.3.1-.6-.1l-.3-.3.3-.2.5-.5.5-.5.5-.5.5-.5.5-.5.5-.5m-3 3-.3.3.3-.3.1-.1-.2.2m4-4-.2.1-.1.2-.2.2.1-.1.3-.3"/><path style="fill:#4a6949;fill-opacity:1" d="m27.9 13.4.1-.4v.3l-.2.3v-.2l.1-.4v-.2.2l.4.1.7.4.5.5.5.5.5.5.4.6q.1.4 0 .8t-.4.6l-.5.5-.5.5-.5.5-.5.5-.5.5-.5.5-.5.5-.5.5-.5.5-.5.5-.5.5-.5.5-.5.5-.5.5-.5.5-.5.5-.5.5-.5.5-.5.5-.5.5-.5.5-.5.5-.5.5-.5.5-.5.5-.5.5-.5.5-.6.4-.9.1h-1l-.9-.1-.6-.4-.5-.5q-.3-.3-.4-.7L12 29h-.2.8-.3l-.3.1.4-.1.6-.4.5-.5.5-.5.5-.5.5-.5.5-.5.5-.5.5-.5.5-.5.5-.5.5-.5.5-.5.5-.5.5-.5.5-.5.5-.5.5-.5.5-.5.5-.5.5-.5.5-.5.5-.5.5-.5.5-.5.5-.5.5-.5.5-.5.5-.5.5-.5.5-.5.4-.6"/><path style="fill:#5e988d;fill-opacity:1" d="M25.9 11.6q-.1-.3.1-.6l.3-.3.2.3.5.5.5.5.4.6q.1.4 0 .8l-.4.6-.5.5-.5.5-.5.5-.5.5-.5.5-.5.5-.5.5-.5.5-.5.5-.5.5-.5.5-.5.5-.5.5-.5.5-.5.5-.5.5-.5.5-.5.5-.5.5-.5.5-.5.5-.5.5-.5.5-.5.5-.5.5-.5.5-.5.5-.5.5-.5.5-.6.4q-.4.1-.8 0l-.6-.4-.5-.5-.5-.5-.5-.5-.5-.5-.5-.5-.4-.6q-.1-.4 0-.8l.4-.6q.3-.3.4-.7L9 23h-.2.8-.3L9 23l.4-.1.6-.4.5-.5.3-.3.2.3q.3.3.6.1.4-.1.4.4t.5.5.5.5.5.5q.5 0 .5-.5t.5-.5.5-.5.5-.5.5-.5.5-.5.5-.5v-1q0-.5-.5-.5t-.5-.5q0-.5-.4-.4-.3.1-.6-.1l-.3-.3.3-.2.5-.5.5-.5.5-.5.5-.5.5-.5.5-.5.5-.5.3-.3.2.3q.3.3.1.6-.1.4.4.4t.5.5.5.5h1q.5 0 .5-.5t.5-.5.5-.5.5-.5.5-.5.5-.5.5-.5.5-.5q.5 0 .4-.4m-7 2-.1.2-.2.1-.2.2.1-.1.3-.3M15 17.6l-.2.1v.1l.3-.3.1-.1-.2.2m-4 4-.2.1-.1.2-.2.2.1-.1.3-.3m15.6-10.8-.1-.2h-.1l.3.3.1.1-.2-.2"/><path style="fill:#8bbeb0;fill-opacity:1" d="M22.9 9.4 23 9h-.2 1-.8.5l.9.1.6.4.5.5.5.5.3.3-.3.2q-.3.3-.1.6.1.4-.4.4t-.5.5-.5.5-.5.5-.5.5-.5.5-.5.5-.5.5-.5.5h-1q-.5 0-.5-.5t-.5-.5q-.5 0-.4-.4.1-.3-.1-.6l-.3-.3.3-.2.5-.5.5-.5.5-.5.5-.5.5-.5.5-.5.5-.5.4-.6m-4 4.2-.1.2h-.1l.3-.3.1-.1-.2.2m7.4-2.8-.2-.2-.2-.2.1.1.3.3"/><path style="fill:#4a6949;fill-opacity:1" d="M19.9 7.4 20 7v.3l-.2.3v-.2L20 7v-.2.2l.4.1.7.4.5.5.5.5.6.4.4.1h-.3l-.3-.2h.2l.4.2h.3-.2l-.2.4-.4.6-.5.5-.5.5-.5.5-.5.5-.5.5-.5.5-.5.5-.5.5-.5.5-.5.5-.5.5-.5.5-.5.5-.5.5-.5.5-.5.5-.5.5-.5.5-.5.5-.5.5-.5.5-.5.5-.5.5-.5.5-.5.5-.6.4q-.4.1-.8 0l-.6-.4-.5-.5-.5-.5-.5-.5-.5-.5-.5-.5-.5-.5-.5-.5-.5-.5-.5-.5-.4-.6-.1-.9V15v.7V14.8v.2l.4.1.6.4.5.5.5.5.5.5.5.5.5.5.5.5.6.4q.4.1.8 0l.6-.4.5-.5.5-.5.5-.5.5-.5.5-.5.5-.5.5-.5.5-.5.5-.5.5-.5.5-.5.5-.5.5-.5.5-.5.5-.5.5-.5.5-.5.5-.5.5-.5.5-.5.5-.5.4-.6"/><path style="fill:#5e988d;fill-opacity:1" d="M17.9 5.6q-.1-.3.1-.6l.3-.3.2.3.5.5.5.5.4.6q.1.4 0 .8l-.4.6-.5.5-.5.5-.5.5-.5.5-.5.5-.5.5-.5.5-.5.5-.5.5-.5.5-.5.5-.5.5-.5.5-.5.5-.5.5-.5.5-.5.5-.5.5-.5.5-.5.5-.5.5-.6.4q-.4.1-.8 0l-.6-.4-.5-.5-.5-.5-.5-.5-.5-.5-.5-.5-.5-.5-.6-.4H3v.2-.3l.1-.4v-.2.3L3 15l.1-.4.4-.6.5-.5.5-.5.3-.3.2.3q.3.3.6.1.4-.1.4.4t.5.5.5.5.5.5h1q.5 0 .5-.5t.5-.5.5-.5.5-.5.5-.5.5-.5.5-.5.5-.5.5-.5.5-.5.5-.5.5-.5.5-.5.5-.5.5-.5.5-.5.5-.5.5-.5q.5 0 .4-.4m-13 7-.2.2-.1.1-.2.2.1-.1.3-.3m13.6-7.8-.1-.2h-.1l.3.3.1.1-.2-.2"/><path style="fill:#8bbeb0;fill-opacity:1" d="m14 3.5.6-.4.9-.1.9.1q.4.1.6.4l.5.5.5.5.3.3-.3.2q-.3.3-.1.6.1.4-.4.4t-.5.5-.5.5-.5.5-.5.5-.5.5-.5.5-.5.5-.5.5-.5.5-.5.5-.5.5-.5.5-.5.5-.5.5-.5.5-.5.5-.5.5-.5.5h-1q-.5 0-.5-.5t-.5-.5-.5-.5q0-.5-.4-.4-.3.2-.6-.1l-.3-.3.3-.2.5-.5.5-.5.5-.5.5-.5.5-.5.5-.5.5-.5.5-.5.5-.5.5-.5.5-.5.5-.5.5-.5.5-.5.5-.5.5-.5.5-.5.5-.5m-9 9-.3.3.3-.3.1-.1-.2.2m13.4-7.8-.2-.2-.2-.2.1.1.3.3"/><path style="fill:#000;fill-opacity:0" d="M0 .5V0h32v32H0V.5M15.5 31l.9-.1q.4-.1.6-.4l.5-.5.5-.5.5-.5.5-.5.5-.5.5-.5.5-.5.5-.5.5-.5.5-.5.5-.5.5-.5.5-.5.5-.5.5-.5.5-.5.5-.5.5-.5.5-.5.5-.5.5-.5.5-.5.5-.5.5-.5.5-.5.5-.5.5-.5.4-.6q.1-.4 0-.8l-.4-.6-.5-.5-.5-.5-.5-.5q-.3-.3-.7-.4L28 13v.2-.8.3l.1.3-.1-.4-.4-.6-.5-.5-.5-.5-.5-.5-.5-.5-.5-.5-.6-.4-.9-.1-.9-.1-.6-.4-.5-.5-.5-.5q-.3-.3-.7-.4L20 7v.2-.8.3l.1.3-.1-.4-.4-.6-.5-.5-.5-.5-.5-.5-.5-.5-.5-.5-.6-.4-.9-.1-.9.1-.6.4-.5.5-.5.5-.5.5-.5.5-.5.5-.5.5-.5.5-.5.5-.5.5-.5.5-.5.5-.5.5-.5.5-.5.5-.5.5-.5.5-.5.5-.5.5-.5.5-.5.5-.5.5-.4.6-.1.9v1l.1.9q.1.4.4.6l.5.5.5.5.5.5.5.5.5.5.5.5.5.5.5.5.5.5.6.4.4.1h-.3l-.3-.2h.2l.4.1h.2H9l-.1.4-.4.7-.4.6q-.1.4 0 .8l.4.6.5.5.5.5.5.5.5.5.5.5.6.4.4.1h-.3l-.3-.2h.2l.4.1h.2-.2l.1.4.4.7.5.5.6.4.9.1h1" fill="none"/></svg>
